world_stage/static/flags/rect/guf.svg

<svg height="800" viewBox="0 0 1200 800" width="1200" xmlns="http://www.w3.org/2000/svg"><path d="m0 0 900-600v600z" fill="#078930" transform="matrix(1.3333333 0 0 -1.3333333 0 -.0004)"/><path d="m0 0v-600h900z" fill="#fcdd09" transform="matrix(1.3333333 0 0 -1.3333333 0 -.0004)"/><path d="m0 0 58.778-180.901-153.883 111.803h190.21l-153.883-111.803z" fill="#da121a" transform="matrix(1.3333333 0 0 -1.3333333 600 266.66667)"/></svg>

<?xml version="1.0" encoding="UTF-8" standalone="no"?>
<!-- Created with Inkscape (http://www.inkscape.org/) -->

<svg
   version="1.1"
   id="svg1"
   width="1200"
   height="800"
   viewBox="0 0 1200 800"
   sodipodi:docname="gf.ai"
   xmlns:inkscape="http://www.inkscape.org/namespaces/inkscape"
   xmlns:sodipodi="http://sodipodi.sourceforge.net/DTD/sodipodi-0.dtd"
   xmlns="http://www.w3.org/2000/svg"
   xmlns:svg="http://www.w3.org/2000/svg">
  <defs
     id="defs1" />
  <sodipodi:namedview
     id="namedview1"
     pagecolor="#ffffff"
     bordercolor="#000000"
     borderopacity="0.25"
     inkscape:showpageshadow="2"
     inkscape:pageopacity="0.0"
     inkscape:pagecheckerboard="0"
     inkscape:deskcolor="#d1d1d1">
    <inkscape:page
       x="0"
       y="0"
       inkscape:label="1"
       id="page1"
       width="1200"
       height="800"
       margin="0"
       bleed="0" />
  </sodipodi:namedview>
  <g
     id="layer-MC0"
     inkscape:groupmode="layer"
     inkscape:label="Flag of French Guiana">
    <path
       id="path1"
       d="M 0,0 900,-600 V 0 Z"
       style="fill:#078930;fill-opacity:1;fill-rule:nonzero;stroke:none"
       transform="matrix(1.3333333,0,0,-1.3333333,0,-4e-4)" />
    <path
       id="path2"
       d="M 0,0 V -600 H 900 Z"
       style="fill:#fcdd09;fill-opacity:1;fill-rule:nonzero;stroke:none"
       transform="matrix(1.3333333,0,0,-1.3333333,0,-4e-4)" />
    <path
       id="path3"
       d="M 0,0 58.778,-180.901 -95.105,-69.098 H 95.105 L -58.778,-180.901 Z"
       style="fill:#da121a;fill-opacity:1;fill-rule:nonzero;stroke:none"
       transform="matrix(1.3333333,0,0,-1.3333333,600,266.66667)" />
  </g>
</svg>
